dist/svgs/unicons/line/meeting-board.svg

<svg xmlns="http://www.w3.org/2000/svg" data-name="Layer 1" viewBox="0 0 24 24"><path d="M7 10h2a1 1 0 000-2H7a1 1 0 000 2zm14-6h-8V3a1 1 0 00-2 0v1H3a1 1 0 00-1 1v10a3 3 0 003 3h4.59l-2.3 2.29a1 1 0 000 1.42 1 1 0 001.42 0l2.29-2.3V21a1 1 0 002 0v-1.59l2.29 2.3a1 1 0 001.42 0 1 1 0 000-1.42L14.41 18H19a3 3 0 003-3V5a1 1 0 00-1-1zm-1 11a1 1 0 01-1 1H5a1 1 0 01-1-1V6h16zM7 14h6a1 1 0 000-2H7a1 1 0 000 2z"/></svg>

<svg xmlns="http://www.w3.org/2000/svg" data-name="Layer 1" viewBox="0 0 24 24"><path d="M7,10H9A1,1,0,0,0,9,8H7a1,1,0,0,0,0,2ZM21,4H13V3a1,1,0,0,0-2,0V4H3A1,1,0,0,0,2,5V15a3,3,0,0,0,3,3H9.59l-2.3,2.29a1,1,0,0,0,0,1.42,1,1,0,0,0,1.42,0L11,19.41V21a1,1,0,0,0,2,0V19.41l2.29,2.3a1,1,0,0,0,1.42,0,1,1,0,0,0,0-1.42L14.41,18H19a3,3,0,0,0,3-3V5A1,1,0,0,0,21,4ZM20,15a1,1,0,0,1-1,1H5a1,1,0,0,1-1-1V6H20ZM7,14h6a1,1,0,0,0,0-2H7a1,1,0,0,0,0,2Z"/></svg>
